icons/desktop/16/svg/print-16.svg

<svg width="16" height="16" viewBox="0 0 16 16" fill="none" xmlns="http://www.w3.org/2000/svg">
<path fill-rule="evenodd" clip-rule="evenodd" d="M8 0C8.7664 0 9.47243 0.0590753 10.1064 0.148438C11.4621 0.339969 12.5 1.48198 12.5 2.87695V5.1582C13.0484 5.19671 13.6078 5.24293 14.1777 5.29785C15.2067 5.39685 16 6.25898 16 7.29297V10.8213C15.9999 11.8462 15.2299 12.7145 14.209 12.8135C13.6563 12.8668 13.0846 12.9093 12.5 12.9492V13.123C12.5 14.518 11.4621 15.66 10.1064 15.8516C9.47243 15.9409 8.7664 16 8 16C7.5523 16 7.03443 15.9798 6.46094 15.9209L5.86914 15.8486C4.51566 15.6551 3.50005 14.4922 3.5 13.1211V12.9502C2.94448 12.9123 2.37995 12.8705 1.7998 12.8145C0.778974 12.7154 0.000146242 11.8471 0 10.8213V7.29297C1.58058e-05 6.26306 0.775878 5.39891 1.80176 5.2998C2.35291 5.24632 2.91936 5.19902 3.5 5.1582V2.87891C3.50005 1.50781 4.51566 0.344918 5.86914 0.151367L6.46094 0.0791016C7.03443 0.0202351 7.5523 0 8 0ZM5 13.1211C5.00005 13.7419 5.46267 14.2748 6.08105 14.3633L6.61426 14.4287C7.13099 14.4817 7.59732 14.5 8 14.5C8.68951 14.5 9.32553 14.4468 9.89746 14.3662C10.5376 14.2756 11 13.7459 11 13.123V10.1143H5V13.1211ZM13 7C12.4477 7 12 7.44772 12 8C12 8.55228 12.4477 9 13 9C13.5523 9 14 8.55228 14 8C14 7.44772 13.5523 7 13 7ZM8 1.5C7.59732 1.5 7.13099 1.51825 6.61426 1.57129L6.08105 1.63672C5.46267 1.72523 5.00005 2.25814 5 2.87891V5.07129C5.96525 5.02612 6.96601 5 8 5C8.95177 5 9.95316 5.02124 11 5.07031V2.87695C11 2.2541 10.5376 1.72442 9.89746 1.63379C9.32553 1.55317 8.68951 1.5 8 1.5Z" fill="black"/>
</svg>

<!-- This Source Code Form is subject to the terms of the Mozilla Public
   - License, v. 2.0. If a copy of the MPL was not distributed with this
   - file, You can obtain one at http://mozilla.org/MPL/2.0/. -->
<svg xmlns="http://www.w3.org/2000/svg" width="16" height="16" fill="context-fill" fill-opacity="context-fill-opacity" viewBox="0 0 16 16">
    <path fill-rule="evenodd" d="M8 0c.766 0 1.472.06 2.106.148C11.462.34 12.5 1.482 12.5 2.877v2.281q.822.058 1.678.14A2.01 2.01 0 0 1 16 7.293v3.528c0 1.025-.77 1.893-1.791 1.992-.553.054-1.124.096-1.709.136v.174c0 1.395-1.038 2.537-2.394 2.729a15 15 0 0 1-3.645.069l-.592-.072A2.76 2.76 0 0 1 3.5 13.12v-.17c-.556-.039-1.12-.08-1.7-.136-1.021-.1-1.8-.968-1.8-1.994V7.293C0 6.263.776 5.399 1.802 5.3q.826-.08 1.698-.142v-2.28A2.76 2.76 0 0 1 5.87.152L6.46.08C7.035.02 7.553 0 8 0M5 13.121c0 .62.463 1.154 1.081 1.242l.533.066a13.6 13.6 0 0 0 3.283-.063c.64-.09 1.103-.62 1.103-1.243v-3.009H5zM13 7a1 1 0 1 0 0 2 1 1 0 0 0 0-2M8 1.5c-.403 0-.869.018-1.386.071l-.533.066A1.26 1.26 0 0 0 5 2.879V5.07a64 64 0 0 1 6 0V2.876c0-.623-.462-1.153-1.103-1.243A14 14 0 0 0 8 1.5" clip-rule="evenodd" />
</svg>
